src/assets/images/icons/menu-3-line.svg

<svg xmlns="http://www.w3.org/2000/svg" width="24" height="24" fill="none" viewBox="0 0 24 24"><g clip-path="url(#a)"><path fill="#181d27" d="M3 4h18v2H3zm6 7h12v2H9zm-6 7h18v2H3z"/></g><defs><clipPath id="a"><path fill="#fff" d="M0 0h24v24H0z"/></clipPath></defs></svg>

<svg width="24" height="24" viewBox="0 0 24 24" fill="none" xmlns="http://www.w3.org/2000/svg">
<g clip-path="url(#clip0_58_16616)">
<path d="M3 4H21V6H3V4ZM9 11H21V13H9V11ZM3 18H21V20H3V18Z" fill="#181D27"/>
</g>
<defs>
<clipPath id="clip0_58_16616">
<rect width="24" height="24" fill="white"/>
</clipPath>
</defs>
</svg>
